X:2763
T:I gave my love a cherry
O:england
C:anon.
M:C
L:1/8
K:F
C|"F"CCCC "Bb"DF2G|"Bb"F2D2 "F"C3F|"C"GGGG "F"Ac2c|"F"c2(cA) "C"G3F|
w:I gave my love a cher-ry that had no stone, I gave my love a chick-en that had no_ bone, I
"C"GGGG "F"(Ac2)c|"F"c2A2 "C"G3A|"Dm"GFDC "Bb"DF2G|"Bb"F2D2 "F"C2 z|]
w:gave my love a ring_ that had no end, I gave my love a ba-by with no cry-en.
W:
W:I gave my love a cherry that had no stone,
W:I gave my love a chicken that had no bone,
W:I gave my love a ring that had no end,
W:I gave my love a baby with no cryen.
W:
W:How can there be a cherry that has no stone?
W:How can there be a chicken that has no bone?
W:How can there be a ring that has no end?
W:How can there be a baby with no cryen?
W:
W:A cherry, when it's blooming, it has no stone,
W:A chicken when it's pipping, it has no bone,
W:A ring when it's rolling, it has no end,
W:A baby when it's sleeping, has no cryen.


